X:1
T:Title
%%score { ( 1 3 ) | 2 }
L:1/8
M:4/4
K:Bb
V:1 treble nm="Grand Piano"
V:3 treble 
V:2 bass 
V:1
 z4 z2[Q:1/4=100] [B,D][CE] | [DF]2 [DB][Ec] [Fd]2 [DF][DF] | [EG]2 [EG][FA] [GB]2 [FA][EG] | %3
 [DF]2 [DB][Ec] [Fd]2 [=Ec][EB] |[M:3/4] [Ec]6 |[M:1/4] [B,D][CE] | %6
[M:4/4] [DF]2 [DB][Ec] [Fd]2 [DF][DF] | [EG]2 [EG][FA] [GB]2 [FA]G | F F2 B d2 cc |[M:3/4] [DB]6 | %10
[M:1/4] [DF][DF] |[M:4/4] [Fd] [Fd]2 [Ec] [DB]2 [DF][D^F] | G6 z2 | %13
 [=Ec]2 [Ec][EB] [EA]2 [EB][EB] |[M:3/4] [Ec]6 |[M:1/4] [A,EF][A,EF] | %16
[M:4/4] [Dd] [Dd]2 c B2 [DF][DF] |[M:9/8] [EG] [EG]2 [FA] [GB]2- [GB]AG |[M:4/4] F F2 B d2 cc | %19
[M:3/4] [DB]6 |] %20
V:2
 z4 z2 [B,,F,][B,,F,] | [B,,B,]2 [B,,B,][B,,B,] [B,,B,]2 [B,,B,][B,,B,] | %2
 [E,B,]2 [E,B,][E,B,] [E,E]2 [E,B,][E,B,] | [B,,B,]2 [B,,B,][B,,B,] [B,,B,]2 [C,B,][C,B,] | %4
[M:3/4] [F,A,]6 |[M:1/4] [B,,F,][B,,F,] |[M:4/4] [B,,B,]2 [B,,B,][B,,B,] [B,,B,]2 [B,,B,][B,,B,] | %7
 [E,B,]2 [E,B,][E,B,] [E,E]2 [E,B,][E,B,E] | [F,B,D] [F,B,D]2 [F,B,D] [F,B,F]2 [F,A,E][F,A,E] | %9
[M:3/4] [B,,B,]6 |[M:1/4] [B,,B,][B,,B,] | %11
[M:4/4] [B,,B,] [B,,B,]2 [B,,B,] [B,,B,]2 [B,,B,][B,,B,] | %12
 [E,B,E]2 [E,B,][E,B,] [E,B,]2 [D,=B,][D,B,] | [C,C]2 [C,C][C,C] [C,C]2 [C,B,][C,B,] | %14
[M:3/4] [F,A,]2 F,F, F,E, |[M:1/4] D,C, |[M:4/4] [B,,B,] [B,,B,]2 [F,A,E] [B,D]2 [B,,B,][B,,B,] | %17
[M:9/8] [E,B,] [E,B,]2 [E,B,] [E,E]2- [E,E][=E,B,_D][E,B,D] | %18
[M:4/4] [F,B,D] [F,B,D]2 [F,B,D] [F,B,F]2 [F,A,E][F,A,E] |[M:3/4] [B,,B,]6 |] %20
V:3
 x8 | x8 | x8 | x8 |[M:3/4] x6 |[M:1/4] x2 |[M:4/4] x8 | x8 | x8 |[M:3/4] x6 |[M:1/4] x2 | %11
[M:4/4] x8 | z2 EE E2 [FG][FG] | x8 |[M:3/4] z2 A,A, A,2 |[M:1/4] x2 |[M:4/4] x8 |[M:9/8] x9 | %18
[M:4/4] x8 |[M:3/4] x6 |] %20

